modules/entypo/icons/progress-3.svg

<svg height="1000" width="1000" xmlns="http://www.w3.org/2000/svg"><path d="M1000 400v250c0 28-9.667 51.667-29 71s-43 29-71 29H100c-26.667 0-50-9.667-70-29S0 678 0 650V350c0-26.667 10-50 30-70s43.333-30 70-30h800c28 0 51.667 10 71 30s29 43.333 29 70v50M900 650V350H100v300h800m-750-50V402h200v198H150m250 0V402h200v198H400m250-198h200v198H650V402"/></svg>

<svg height="1000px" width="1000px" xmlns="http://www.w3.org/2000/svg">
  <g>
    <path d="M1000 400c0 0 0 250 0 250c0 28 -9.667 51.667 -29 71c-19.333 19.333 -43 29 -71 29c0 0 -800 0 -800 0c-26.667 0 -50 -9.667 -70 -29c-20 -19.333 -30 -43 -30 -71c0 0 0 -300 0 -300c0 -26.667 10 -50 30 -70c20 -20 43.333 -30 70 -30c0 0 800 0 800 0c28 0 51.667 10 71 30c19.333 20 29 43.333 29 70c0 0 0 50 0 50c0 0 0 0 0 0m-100 250c0 0 0 -300 0 -300c0 0 -800 0 -800 0c0 0 0 300 0 300c0 0 800 0 800 0c0 0 0 0 0 0m-750 -50c0 0 0 -198 0 -198c0 0 200 0 200 0c0 0 0 198 0 198c0 0 -200 0 -200 0c0 0 0 0 0 0m250 0c0 0 0 -198 0 -198c0 0 200 0 200 0c0 0 0 198 0 198c0 0 -200 0 -200 0c0 0 0 0 0 0m250 -198c0 0 200 0 200 0c0 0 0 198 0 198c0 0 -200 0 -200 0c0 0 0 -198 0 -198c0 0 0 0 0 0" />
  </g>
</svg>
